symbols/web/production_quantity_limits/materialsymbolssharp/production_quantity_limits_wght300grad200_24px.svg

<svg xmlns="http://www.w3.org/2000/svg" height="24" width="24"><path d="M6.8 22.05q-.875 0-1.488-.612-.612-.613-.612-1.488t.612-1.488q.613-.612 1.488-.612t1.488.612q.612.613.612 1.488t-.612 1.488q-.613.612-1.488.612Zm10.25 0q-.875 0-1.488-.612-.612-.613-.612-1.488t.612-1.488q.613-.612 1.488-.612t1.488.612q.612.613.612 1.488t-.612 1.488q-.613.612-1.488.612ZM12 9.9q-.55 0-.925-.375T10.7 8.6q0-.575.375-.95T12 7.275q.55 0 .925.375t.375.95q0 .55-.375.925T12 9.9Zm-1.075-3.5V.925h2.15V6.4Zm-7.65 10.55 3.075-5.6-3.7-7.7H.6V1.5h3.375L8.4 10.7h7.15l3.95-7.15h2.425l-5.125 9.3H7.95L6.875 14.8H19.15v2.15Z"/></svg>

<svg xmlns="http://www.w3.org/2000/svg" height="24" width="24"><path d="M6.8 22.05Q5.925 22.05 5.312 21.438Q4.7 20.825 4.7 19.95Q4.7 19.075 5.312 18.462Q5.925 17.85 6.8 17.85Q7.675 17.85 8.288 18.462Q8.9 19.075 8.9 19.95Q8.9 20.825 8.288 21.438Q7.675 22.05 6.8 22.05ZM17.05 22.05Q16.175 22.05 15.562 21.438Q14.95 20.825 14.95 19.95Q14.95 19.075 15.562 18.462Q16.175 17.85 17.05 17.85Q17.925 17.85 18.538 18.462Q19.15 19.075 19.15 19.95Q19.15 20.825 18.538 21.438Q17.925 22.05 17.05 22.05ZM12 9.9Q11.45 9.9 11.075 9.525Q10.7 9.15 10.7 8.6Q10.7 8.025 11.075 7.65Q11.45 7.275 12 7.275Q12.55 7.275 12.925 7.65Q13.3 8.025 13.3 8.6Q13.3 9.15 12.925 9.525Q12.55 9.9 12 9.9ZM10.925 6.4V0.925H13.075V6.4ZM3.275 16.95 6.35 11.35 2.65 3.65H0.6V1.5H3.975L8.4 10.7H15.55L19.5 3.55H21.925L16.8 12.85H7.95L6.875 14.8H19.15V16.95Z"/></svg>
